X:1
T:Title
%%score { 1 | 2 }
L:1/8
M:3/4
K:G
V:1 treble nm="Grand Piano"
V:2 bass 
V:1
 z2 z2[Q:1/4=100] D2 | G>G G3 G | [FA]>[FA] [FA]2 [Ac]2 | [GB]3 [FA] G>[FA] |[M:2/4] B4 | %5
[M:1/4] D2 |[M:3/4] G>G G3 G | [FA]>[FA] [FA]2 [Fc]2 | [GB]3 [EA] [DG][DF] |[M:2/4] [B,DG]4 | %10
[M:1/4] G2 |[M:3/4] B<d d3 B | [FA]<[FB] G2 G2 | A3 A [DG]>A |[M:2/4] B4 |[M:1/4] G2 | %16
[M:3/4] Bd d3 B | [FA]>[FB] G2 G2 | [EA]3 [EA] GF |[M:2/4] G4 |] %20
V:2
 z2 z2 [G,B,]2 | [G,B,D]>[G,B,D] [G,B,D]3 [G,B,] | [D,D]>[D,D] [D,D]2 [D,D]2 | %3
 [D,D]3 [D,C] [D,B,]>[D,D] |[M:2/4][K:treble] [G,DG]4 |[M:1/4] [G,B,]2 | %6
[M:3/4] [G,B,D]>[G,B,D] [G,B,D]3[K:bass] [G,B,] | [D,D]>[D,D] [D,D]2 [D,D]2 | %8
 [G,D]3 [C,C] [D,B,][D,A,] |[M:2/4] [G,,G,]4 |[M:1/4] [G,B,]2 | %11
[M:3/4][K:treble] [G,DG]<[G,B,G] [G,B,G]3 [G,DG] | [D,C]<[D,D] [G,B,]2 [G,B,]2 | %13
 [D,F,D]3 [D,F,D] [B,,G,]>[D,F,D] |[M:2/4] [G,D]4 |[M:1/4] [G,B,]2 | %16
[M:3/4][K:treble] [G,DG][G,B,G] [G,B,G]3 [G,DG] | [D,C]>[D,D] [G,B,]2 [G,B,D]2 | %18
 [C,C]3 [C,C] [D,B,D][D,A,D] |[M:2/4] [G,B,D]4 |] %20

